assets/images/ammoType/light_mythic.svg

<svg clip-rule="evenodd" fill-rule="evenodd" height="512" image-rendering="optimizeQuality" shape-rendering="geometricPrecision" text-rendering="geometricPrecision" viewBox="0 0 512 512" width="512" xmlns="http://www.w3.org/2000/svg"><path d="m281 360c1-2 1-1 0 0z" fill="#8a0020"/><path d="m231 360c-1-2-1-1 0 0z" fill="#8a0020"/><g clip-rule="evenodd" fill-rule="evenodd" image-rendering="optimizeQuality" shape-rendering="geometricPrecision" text-rendering="geometricPrecision" transform="matrix(.953125 0 0 .953125 12 41.546875)"><g><path d="m324 375 45-79h23l49-56h40z" fill="#cb013f"/><path d="m281 360c1-2 1-1 0 0z" fill="#8a0020"/><path d="m231 360c-1-2-1-1 0 0z" fill="#8a0020"/><path d="m111 60 12 18-23 40h-19c13 24 25 45 39 68 8.52125-1.33487 16.42371.66969 20 7l49 82c5.37746 10.34667 3.58013 22.01169-3 31.04l46 75.96v-12h48v12l43.98019-75.96c-3.82415-9.19949-6.14581-20.8609-.98019-31.04l49-82c4.05898-6.89617 12.58627-7 20-7 14-23 26-44 39-68h-19l-23-40 12-18h-78c-1.56053 8.203883-8.98657 15.854679-17 16h-50-50c-7.62237-.10227-16.85396-8.475247-17-16z" fill="#ca003e" fill-opacity=".75" stroke="#ff2d59" stroke-width="10"/><path d="m456 145h56l-116 133h-16z" fill="#cb013f"/><path d="m470 68v35l-40-67h-15l47 81-176 306h-30-30l-176-306 47-81h-15l-40 67v-35l33-56h121l18 24h84l18-24h121zm-273-21h-93l-9 14 12 18-15 26h-22l-6 11 48 84h17l51 87-10 15 63 109h5l7.24296-27h24l4.75704 27h5l63-109-10-15 51-87h17l48-84-6-11h-22l-15-26 12-18-9-14h-93l-9 15h-100z" fill="#ca003e"/><g fill="#cb013f"><path d="m290 23 8-11 8-12c-17 0-33 0-50 0s-33 0-50 0l8 12 8 11h34z"/><path d="m201 398-97-83 106 135h92l106-135-97 83-20 34h-70zm-145-253h-56l116 133h16zm132 230-45-79h-23l-49-56h-40z"/></g></g><g fill="#8a0020"><path d="m281 360c1-2 1-1 0 0z"/><path d="m231 360c-1-2-1-1 0 0z"/><path d="m354 105v41h-18c0-5-8-5-8 0h-106l-16-8v-26l16-7h106c0 5 8 5 8 0zm0 100h-18c0-5-8-5-8 0h-106l-16-6v-29l16-6h106c0 5 8 5 8 0h18zm-5.56204 18-24.69788 41h-101.74008l-16-5v-29l16-7h107c0 5 8 5 8 0zm-32.39548 57c-2.2085 7.10986-.97754 17.73535 2.68164 25.95508l-10.68164 18.04492h-86.04248l-16-8v-26l16-10zm-115.04248 36h-3.11291l-5.98329-9.8523c4.49168-7.28217 4.59199-11.93949 5.18151-16.1477h3.91469zm-17.21481-59.5537-13.41237-22.36773c9.82122-2.45001 20.61796-3.64057 30.62718-4.07857v29c-8.23548-.22838-8.33112-.25953-17.21481-2.5537zm-41.78519-71.4463c24.79743-13.26277 39.87471-15.06513 59-15v29c-19.00827.07-34.38565-1.15425-59-14zm59-73v26c-20.36328-.12109-38.81396-1.24219-59-13 20.54932-10.56055 40.10986-12.31836 59-13z"/></g></g></svg>

<?xml version="1.0" encoding="UTF-8" standalone="no"?>
<!-- Creator: CorelDRAW X8 -->

<svg
   xml:space="preserve"
   width="512"
   height="512"
   version="1.1"
   style="clip-rule:evenodd;fill-rule:evenodd;image-rendering:optimizeQuality;shape-rendering:geometricPrecision;text-rendering:geometricPrecision"
   viewBox="0 0 512 512"
   id="svg29"
   sodipodi:docname="Mythic_Light_Rounds.svg"
   inkscape:version="1.1.1 (3bf5ae0d25, 2021-09-20)"
   xmlns:inkscape="http://www.inkscape.org/namespaces/inkscape"
   xmlns:sodipodi="http://sodipodi.sourceforge.net/DTD/sodipodi-0.dtd"
   xmlns="http://www.w3.org/2000/svg"
   xmlns:svg="http://www.w3.org/2000/svg"><sodipodi:namedview
   id="namedview31"
   pagecolor="#ffffff"
   bordercolor="#666666"
   borderopacity="1.0"
   inkscape:pageshadow="2"
   inkscape:pageopacity="0.0"
   inkscape:pagecheckerboard="0"
   showgrid="false"
   inkscape:zoom="0.56888889"
   inkscape:cx="217.08984"
   inkscape:cy="203.02734"
   inkscape:window-width="1366"
   inkscape:window-height="697"
   inkscape:window-x="-8"
   inkscape:window-y="-8"
   inkscape:window-maximized="1"
   inkscape:current-layer="Layer_x0020_1"
   inkscape:object-nodes="false" />
 <defs
   id="defs4">
  <style
   type="text/css"
   id="style2">
   <![CDATA[
    .fil1 {fill:#8A0020}
    .fil2 {fill:#CA003E}
    .fil0 {fill:#CB013F}
    .fil3 {fill:#ED0049}
    .fil4 {fill:#FF2D59}
   ]]>
  </style>
 </defs>
 <g
   id="Layer_x0020_1"
   inkscape:label="Layer 1"
   inkscape:groupmode="layer">
  <metadata
   id="CorelCorpID_0Corel-Layer" />
  <g
   id="_1537855552288">
   
   
   <path
   class="fil1"
   d="m 281,360 c 1,-2 1,-1 0,0 z"
   id="path11" />
   
   
   
   <path
   class="fil1"
   d="m 231,360 c -1,-2 -1,-1 0,0 z"
   id="path19" />
   
   <g
   id="g1300" />
   
  </g>
 <g
   id="g6322"
   transform="matrix(0.953125,0,0,0.953125,12,41.546875)"><g
     id="_1573068069456"
     style="clip-rule:evenodd;fill-rule:evenodd;image-rendering:optimizeQuality;shape-rendering:geometricPrecision;text-rendering:geometricPrecision"><path
       id="polygon9-3"
       class="fil0"
       style="fill:#cb013f"
       d="m 324,375 45,-79 h 23 l 49,-56 h 40 z"
       sodipodi:nodetypes="cccccc" /><path
       class="fil1"
       d="m 281,360 c 1,-2 1,-1 0,0 z"
       id="path11-4" /><path
       class="fil1"
       d="m 231,360 c -1,-2 -1,-1 0,0 z"
       id="path19-2" /><g
       id="g12902"><path
         id="path21-0"
         class="fil3"
         d="m 111,60 12,18 -23,40 H 81 c 13,24 25,45 39,68 8.52125,-1.33487 16.42371,0.66969 20,7 l 49,82 c 5.37746,10.34667 3.58013,22.01169 -3,31.04 L 232,382 v -12 h 48 v 12 l 43.98019,-75.96 C 320.15604,296.84051 317.83438,285.1791 323,275 l 49,-82 c 4.05898,-6.89617 12.58627,-7 20,-7 14,-23 26,-44 39,-68 H 412 L 389,78 401,60 h -78 c -1.56053,8.203883 -8.98657,15.854679 -17,16 h -50 -50 c -7.62237,-0.10227 -16.85396,-8.475247 -17,-16 z"
         sodipodi:nodetypes="cccccccccccccccccccccccccc"
         style="fill:#ca003e;fill-opacity:0.75;stroke:#ff2d59;stroke-width:10;stroke-miterlimit:4;stroke-dasharray:none;stroke-opacity:1" /><path
         id="polygon7-2"
         class="fil0"
         style="fill:#cb013f"
         d="m 456,145 h 56 L 396,278 h -16 z" /><path
         class="fil2"
         d="m 470,68 v 35 L 430,36 h -15 l 47,81 -176,306 H 256 226 L 50,117 97,36 H 82 L 42,103 V 68 L 75,12 h 121 l 18,24 h 84 L 316,12 H 437 Z M 197,47 h -93 l -9,14 12,18 -15,26 H 70 l -6,11 48,84 h 17 l 51,87 -10,15 63,109 h 5 l 7.24296,-27 h 24 L 274,411 h 5 l 63,-109 -10,-15 51,-87 h 17 l 48,-84 -6,-11 H 420 L 405,79 417,61 408,47 h -93 l -9,15 H 206 Z"
         id="path13-9"
         sodipodi:nodetypes="ccccccccccccccccccccccccccccccccccccccccccccccccccc" /><path
         class="fil0"
         d="m 290,23 8,-11 8,-12 c -17,0 -33,0 -50,0 -17,0 -33,0 -50,0 l 8,12 8,11 c 12,0 23,0 34,0 11,0 22,0 34,0 z"
         id="path15-4" /><path
         class="fil0"
         d="m 201,398 -97,-83 106,135 h 92 l 106,-135 -97,83 -20,34 H 221 Z M 56,145 H 0 l 116,133 h 16 z M 188,375 143,296 H 120 L 71,240 H 31 Z"
         id="path17-4"
         sodipodi:nodetypes="cccccccccccccccccccc" /></g></g><g
     id="_1573064184112"
     style="clip-rule:evenodd;fill-rule:evenodd;image-rendering:optimizeQuality;shape-rendering:geometricPrecision;text-rendering:geometricPrecision"><path
       class="fil1"
       d="m 281,360 c 1,-2 1,-1 0,0 z"
       id="path11-6" /><path
       class="fil1"
       d="m 231,360 c -1,-2 -1,-1 0,0 z"
       id="path19-6" /><path
       class="fil1"
       d="m 354,105 v 41 h -18 c 0,-5 -8,-5 -8,0 H 222 l -16,-8 v -26 l 16,-7 h 106 c 0,5 8,5 8,0 z m 0,100 h -18 c 0,-5 -8,-5 -8,0 H 222 l -16,-6 v -29 l 16,-6 h 106 c 0,5 8,5 8,0 h 18 z m -5.56204,18 -24.69788,41 H 222 l -16,-5 v -29 l 16,-7 h 107 c 0,5 8,5 8,0 z m -32.39548,57 c -2.2085,7.10986 -0.97754,17.73535 2.68164,25.95508 L 308.04248,324 H 222 l -16,-8 v 0 -26 l 16,-10 z M 201,316 h -3.11291 l -5.98329,-9.8523 c 4.49168,-7.28217 4.59199,-11.93949 5.18151,-16.1477 H 201 Z M 183.78519,256.4463 170.37282,234.07857 C 180.19404,231.62856 190.99078,230.438 201,230 v 29 c -8.23548,-0.22838 -8.33112,-0.25953 -17.21481,-2.5537 z M 142,185 c 24.79743,-13.26277 39.87471,-15.06513 59,-15 v 29 c -19.00827,0.07 -34.38565,-1.15425 -59,-14 z m 59,-73 v 26 c -20.36328,-0.12109 -38.81396,-1.24219 -59,-13 20.54932,-10.56055 40.10986,-12.31836 59,-13 z"
       id="path25"
       sodipodi:nodetypes="ccccccccccccccccccccccccccccccccccccccccccccccccccccccccccc" /></g></g></g>
</svg>
